!!!OTL: Jugendverein.
!!!OTL-incipit: BRUEDER AUF DIE FREUDE WINCKT UNS
!!!COM: C. G. Hering
!!!ARE: Europa, Mitteleuropa, Deutschland
!!!SCT: F0751
!!!TXL: @@DE
!!!YEM: Copyright 1995, estate of Helmut Schaffrath.
**kern	**text
*ICvox	*
*clefG2	*
*M6/8	*
*k[b-e-]	*
*B-:	*
=1	=1
!LO:TX:a:t=Munter.	!
!LO:TX:a:t=P:only the highest voice encoded:problem	!
{4B-	1._Brüder
8d	.
4f	auf!
8f	die
=2	=2
4b-/	Freude
8cc/	.
4dd/	winkt
8b-/}	uns,
=3	=3
{4ff/	und
8ee-/	der
4dd/	Wein
8cc/	im
=4	=4
4b-/	Glaſe
8cc/	blinkt
4dd/	.
8b-/}	uns;
=5	=5
{4cc/	komt
8ff/	ʒur
4cc/	Freude,
8a	.
=6	=6
8b-/L	komt
8aJ	.
8g	ʒum
4.f}	Wein!
=7	=7
{4cc/	Laßt
8ee-/	die
4dd/	Freud'
8b-/	umſonſt
=8	=8
4a	.
8cc/	nicht
4b-/	winken,
8f}	.
=9	=9
{4cc/	nicht
8ee-/	umſonſt
4dd/	.
8b-/	die
=10	=10
4a	Gläſer
8cc/	.
4b-/	blinken;
8f}	.
=11	=11
{4ee-	kommt
8dd	ʒur
4cc/	Freude,
8b-/	.
=12	=12
4a	komt
8b-/	ʒum
4.cc/}	Wein!
=13	=13
{4b-	kommt
8f	ʒur
4g	Freude,
8e-	.
=14	=14
4c	kommt
8f	ʒum
4.B-}	Wein!
=15	=15
{8a/L	.
8g	.
8aJ	.
8b-/L	.
8cc	.
8ddJ	.
=16	=16
8cc/L	.
8b-	.
8aJ	.
4.b-/}	.
==	==
!!!AGN: Geselligkeits -, Trink -, Jugend -, Vereins - Lied
!!!ONB: ESAC (Essen Associative Code) Database: FINK
!!!AMT: compound duple
!!!AIN: vox
!!!EED: Helmut Schaffrath
!!!EEV: 1.0
!!!GTL: Liedertafel- und Gesellschaftslieder
!!!source: Musikalischer Hausschatz der Deutschen. Eine Sammlung von über 1000 Liedern und Gesängen mit Singstimmen und Klavierbegleitung. Leipzig, Litterarisches Verlags-Haus.
!!!page: 514
!!!URL-scan: https://www.digitale-sammlungen.de/en/view/bsb11144622?page=465
!!!ENC: Anna Maria Matuszewska
!!!EEV: 2024/08/06
*-	*-
